X:1
T:Longing
T:Longing
T:Halfdan Kjerulf(1815-1868)
C:Halfdan Kjerulf(1815-1868)
%%score { ( 1 4 ) | ( 2 3 ) }
L:1/8
Q:1/4=83
M:3/8
K:G
V:1 treble nm="Piano" snm="Pno."
V:4 treble 
V:2 bass 
V:3 bass 
V:1
"^Adantino espressivo"!p! =D | D2 D | (cBA | B3 | G2) G | F2 A | F2 A | G2 F | E2 z | z3 | EEE | %11
 (FGA) | (D3 | G2)!<(! (G!<)! | A3- | A2) G | F!>(!B[FA]!>)! | [B,G]2 d | D>DD | (DE/F/G/A/) | %20
 (B3 | d2)!mf! G | G>!<(!GG!<)! | (_B2 G) | [=B,=B-]3 | B2 d |!<(! (dfe!<)! | Bce | edB | %29
!<(! AGE!<)! | DB [Fd]/[Ec]/ | [DB][CA][CD] | G2) z |!p! EG [B,D] | (D3 | [Ec])[EB][CFA] | %36
!>(! (((([CFA]3!>)! |!>(! (([B,G]2)))) z))!>)! |] %38
V:2
 z |!ped! (A,,[F,C]D,)!ped-up! |!ped! (D,,[F,C]!ped!D,)!ped-up! | (G,,[G,B,]D,) | %4
!ped! (E,,[B,E]G,)!ped-up! |!ped! (A,,[CE]F,)!ped-up! |!ped! (D,[CE]A,)!ped-up! | B,,^DA, | %8
!ped! (E,B,G,)!ped-up! |!ped! (=D,[B,E]G,)!ped-up! |!ped! (^C,3!ped-up! |!ped! (C,3)!ped-up! | %12
!ped! B,,3)!ped-up! |!ped! B,,^D,G,!ped-up! | C,3 |!ped! C,E,_B,!ped-up! |!ped! [D,A,]DC!ped-up! | %17
 (G,,D,B,) |"^dolce"!ped! (D,,D,[F,C])!ped-up! | (D,,D,[F,C]) |!ped! (G,,D,[G,B,])!ped-up! | %21
 z (D,[G,B,]) |!ped! (G,,_E,G,)!ped-up! | z G,!ped!_E,!ped-up! | G,,D,G, | =B,G,D, | %26
!ped! (D,,D,[F,C])!ped-up! |!ped! (F,,D,[A,C])!ped-up! |!ped! (G,,D,[G,B,])!ped-up! | %29
!ped! [C,A,]2 [^C,_B,]!ped-up! |"^poco rit"!ped! (((([D,B,]3!ped-up! | D,3)))) | %32
"^dolce"!ped! ([G,,D,]3!ped-up! |!ped! G,3)!ped-up! | z!<(! z A,,-!<)! | %35
!ped! [D,,A,,]2!ped! D,!ped-up! |"^rit." D,3- |!ped! [G,,D,]2 z!ped-up! |] %38
V:3
 x | x3 | x3 | x3 | x3 | x3 | x3 | x3 | x3 | x3 | ^C,A,G, | C,A,F, | B,,D,G, | B,,3 | C,E,A, | %15
 C,2 ^C, | x3 | x3 | x3 | x3 | x3 | x3 | G,,3 | G,,3 | G,,3 | x3 | x3 | x3 | x3 | x3 | x3 | D,,3 | %32
 z3 | x3 | x3 | x3 | x3 | x3 |] %38
V:4
 x | x3 | x3 | x3 | x3 | x3 | x3 | x3 | x3 | x3 | x3 | x3 | x3 | x3 | x3 | x3 | C2 z | x3 | x3 | %19
 x3 | x3 | x3 | _B,3- | B,3 | x3 | x3 | x3 | x3 | x3 | x3 | D2 z | x3 | B,DG | C2 B, | z [F,C]2 | %35
 x3 | x3 | x3 |] %38

